imagenes/redes/whatsapp.svg

<svg xmlns="http://www.w3.org/2000/svg"  viewBox="0 0 50 50" width="50px" height="50px"><path d="M 25 2 C 12.309534 2 2 12.309534 2 25 C 2 29.079097 3.1186875 32.88588 4.984375 36.208984 L 2.0371094 46.730469 A 1.0001 1.0001 0 0 0 3.2402344 47.970703 L 14.210938 45.251953 C 17.434629 46.972929 21.092591 48 25 48 C 37.690466 48 48 37.690466 48 25 C 48 12.309534 37.690466 2 25 2 z M 25 4 C 36.609534 4 46 13.390466 46 25 C 46 36.609534 36.609534 46 25 46 C 21.278025 46 17.792121 45.029635 14.761719 43.333984 A 1.0001 1.0001 0 0 0 14.033203 43.236328 L 4.4257812 45.617188 L 7.0019531 36.425781 A 1.0001 1.0001 0 0 0 6.9023438 35.646484 C 5.0606869 32.523592 4 28.890107 4 25 C 4 13.390466 13.390466 4 25 4 z M 16.642578 13 C 16.001539 13 15.086045 13.23849 14.333984 14.048828 C 13.882268 14.535548 12 16.369511 12 19.59375 C 12 22.955271 14.331391 25.855848 14.613281 26.228516 L 14.615234 26.228516 L 14.615234 26.230469 C 14.588494 26.195329 14.973031 26.752191 15.486328 27.419922 C 15.999626 28.087653 16.717405 28.96464 17.619141 29.914062 C 19.422612 31.812909 21.958282 34.007419 25.105469 35.349609 C 26.554789 35.966779 27.698179 36.339417 28.564453 36.611328 C 30.169845 37.115426 31.632073 37.038799 32.730469 36.876953 C 33.55263 36.755876 34.456878 36.361114 35.351562 35.794922 C 36.246248 35.22873 37.12309 34.524722 37.509766 33.455078 C 37.786772 32.688244 37.927591 31.979598 37.978516 31.396484 C 38.003976 31.104927 38.007211 30.847602 37.988281 30.609375 C 37.969311 30.371148 37.989581 30.188664 37.767578 29.824219 C 37.302009 29.059804 36.774753 29.039853 36.224609 28.767578 C 35.918939 28.616297 35.048661 28.191329 34.175781 27.775391 C 33.303883 27.35992 32.54892 26.991953 32.083984 26.826172 C 31.790239 26.720488 31.431556 26.568352 30.914062 26.626953 C 30.396569 26.685553 29.88546 27.058933 29.587891 27.5 C 29.305837 27.918069 28.170387 29.258349 27.824219 29.652344 C 27.819619 29.649544 27.849659 29.663383 27.712891 29.595703 C 27.284761 29.383815 26.761157 29.203652 25.986328 28.794922 C 25.2115 28.386192 24.242255 27.782635 23.181641 26.847656 L 23.181641 26.845703 C 21.603029 25.455949 20.497272 23.711106 20.148438 23.125 C 20.171937 23.09704 20.145643 23.130901 20.195312 23.082031 L 20.197266 23.080078 C 20.553781 22.728924 20.869739 22.309521 21.136719 22.001953 C 21.515257 21.565866 21.68231 21.181437 21.863281 20.822266 C 22.223954 20.10644 22.02313 19.318742 21.814453 18.904297 L 21.814453 18.902344 C 21.828863 18.931014 21.701572 18.650157 21.564453 18.326172 C 21.426943 18.001263 21.251663 17.580039 21.064453 17.130859 C 20.690033 16.232501 20.272027 15.224912 20.023438 14.634766 L 20.023438 14.632812 C 19.730591 13.937684 19.334395 13.436908 18.816406 13.195312 C 18.298417 12.953717 17.840778 13.022402 17.822266 13.021484 L 17.820312 13.021484 C 17.450668 13.004432 17.045038 13 16.642578 13 z M 16.642578 15 C 17.028118 15 17.408214 15.004701 17.726562 15.019531 C 18.054056 15.035851 18.033687 15.037192 17.970703 15.007812 C 17.906713 14.977972 17.993533 14.968282 18.179688 15.410156 C 18.423098 15.98801 18.84317 16.999249 19.21875 17.900391 C 19.40654 18.350961 19.582292 18.773816 19.722656 19.105469 C 19.863021 19.437122 19.939077 19.622295 20.027344 19.798828 L 20.027344 19.800781 L 20.029297 19.802734 C 20.115837 19.973483 20.108185 19.864164 20.078125 19.923828 C 19.867096 20.342656 19.838461 20.445493 19.625 20.691406 C 19.29998 21.065838 18.968453 21.483404 18.792969 21.65625 C 18.639439 21.80707 18.36242 22.042032 18.189453 22.501953 C 18.016221 22.962578 18.097073 23.59457 18.375 24.066406 C 18.745032 24.6946 19.964406 26.679307 21.859375 28.347656 C 23.05276 29.399678 24.164563 30.095933 25.052734 30.564453 C 25.940906 31.032973 26.664301 31.306607 26.826172 31.386719 C 27.210549 31.576953 27.630655 31.72467 28.119141 31.666016 C 28.607627 31.607366 29.02878 31.310979 29.296875 31.007812 L 29.298828 31.005859 C 29.655629 30.601347 30.715848 29.390728 31.224609 28.644531 C 31.246169 28.652131 31.239109 28.646231 31.408203 28.707031 L 31.408203 28.708984 L 31.410156 28.708984 C 31.487356 28.736474 32.454286 29.169267 33.316406 29.580078 C 34.178526 29.990889 35.053561 30.417875 35.337891 30.558594 C 35.748225 30.761674 35.942113 30.893881 35.992188 30.894531 C 35.995572 30.982516 35.998992 31.07786 35.986328 31.222656 C 35.951258 31.624292 35.8439 32.180225 35.628906 32.775391 C 35.523582 33.066746 34.975018 33.667661 34.283203 34.105469 C 33.591388 34.543277 32.749338 34.852514 32.4375 34.898438 C 31.499896 35.036591 30.386672 35.087027 29.164062 34.703125 C 28.316336 34.437036 27.259305 34.092596 25.890625 33.509766 C 23.114812 32.325956 20.755591 30.311513 19.070312 28.537109 C 18.227674 27.649908 17.552562 26.824019 17.072266 26.199219 C 16.592866 25.575584 16.383528 25.251054 16.208984 25.021484 L 16.207031 25.019531 C 15.897202 24.609805 14 21.970851 14 19.59375 C 14 17.077989 15.168497 16.091436 15.800781 15.410156 C 16.132721 15.052495 16.495617 15 16.642578 15 z"/></svg>

<svg xmlns="http://www.w3.org/2000/svg" xmlns:xlink="http://www.w3.org/1999/xlink" viewBox="0,0,256,256" width="50px" height="50px"><g fill="#ffffff" fill-rule="nonzero" stroke="none" stroke-width="1" stroke-linecap="butt" stroke-linejoin="miter" stroke-miterlimit="10" stroke-dasharray="" stroke-dashoffset="0" font-family="none" font-weight="none" font-size="none" text-anchor="none" style="mix-blend-mode: normal"><g transform="scale(5.12,5.12)"><path d="M25,2c-12.69047,0 -23,10.30953 -23,23c0,4.0791 1.11869,7.88588 2.98438,11.20898l-2.94727,10.52148c-0.09582,0.34262 -0.00241,0.71035 0.24531,0.96571c0.24772,0.25536 0.61244,0.35989 0.95781,0.27452l10.9707,-2.71875c3.22369,1.72098 6.88165,2.74805 10.78906,2.74805c12.69047,0 23,-10.30953 23,-23c0,-12.69047 -10.30953,-23 -23,-23zM25,4c11.60953,0 21,9.39047 21,21c0,11.60953 -9.39047,21 -21,21c-3.72198,0 -7.20788,-0.97037 -10.23828,-2.66602c-0.22164,-0.12385 -0.48208,-0.15876 -0.72852,-0.09766l-9.60742,2.38086l2.57617,-9.19141c0.07449,-0.26248 0.03851,-0.54399 -0.09961,-0.7793c-1.84166,-3.12289 -2.90234,-6.75638 -2.90234,-10.64648c0,-11.60953 9.39047,-21 21,-21zM16.64258,13c-0.64104,0 -1.55653,0.23849 -2.30859,1.04883c-0.45172,0.48672 -2.33398,2.32068 -2.33398,5.54492c0,3.36152 2.33139,6.2621 2.61328,6.63477h0.00195v0.00195c-0.02674,-0.03514 0.3578,0.52172 0.87109,1.18945c0.5133,0.66773 1.23108,1.54472 2.13281,2.49414c1.80347,1.89885 4.33914,4.09336 7.48633,5.43555c1.44932,0.61717 2.59271,0.98981 3.45898,1.26172c1.60539,0.5041 3.06762,0.42747 4.16602,0.26563c0.82216,-0.12108 1.72641,-0.51584 2.62109,-1.08203c0.89469,-0.56619 1.77153,-1.2702 2.1582,-2.33984c0.27701,-0.76683 0.41783,-1.47548 0.46875,-2.05859c0.02546,-0.29156 0.02869,-0.54888 0.00977,-0.78711c-0.01897,-0.23823 0.0013,-0.42071 -0.2207,-0.78516c-0.46557,-0.76441 -0.99283,-0.78437 -1.54297,-1.05664c-0.30567,-0.15128 -1.17595,-0.57625 -2.04883,-0.99219c-0.8719,-0.41547 -1.62686,-0.78344 -2.0918,-0.94922c-0.29375,-0.10568 -0.65243,-0.25782 -1.16992,-0.19922c-0.51749,0.0586 -1.0286,0.43198 -1.32617,0.87305c-0.28205,0.41807 -1.4175,1.75835 -1.76367,2.15234c-0.0046,-0.0028 0.02544,0.01104 -0.11133,-0.05664c-0.42813,-0.21189 -0.95173,-0.39205 -1.72656,-0.80078c-0.77483,-0.40873 -1.74407,-1.01229 -2.80469,-1.94727v-0.00195c-1.57861,-1.38975 -2.68437,-3.1346 -3.0332,-3.7207c0.0235,-0.02796 -0.00279,0.0059 0.04687,-0.04297l0.00195,-0.00195c0.35652,-0.35115 0.67247,-0.77056 0.93945,-1.07812c0.37854,-0.43609 0.54559,-0.82052 0.72656,-1.17969c0.36067,-0.71583 0.15985,-1.50352 -0.04883,-1.91797v-0.00195c0.01441,0.02867 -0.11288,-0.25219 -0.25,-0.57617c-0.13751,-0.32491 -0.31279,-0.74613 -0.5,-1.19531c-0.37442,-0.89836 -0.79243,-1.90595 -1.04102,-2.49609v-0.00195c-0.29285,-0.69513 -0.68904,-1.1959 -1.20703,-1.4375c-0.51799,-0.2416 -0.97563,-0.17291 -0.99414,-0.17383h-0.00195c-0.36964,-0.01705 -0.77527,-0.02148 -1.17773,-0.02148zM16.64258,15c0.38554,0 0.76564,0.0047 1.08398,0.01953c0.32749,0.01632 0.30712,0.01766 0.24414,-0.01172c-0.06399,-0.02984 0.02283,-0.03953 0.20898,0.40234c0.24341,0.57785 0.66348,1.58909 1.03906,2.49023c0.18779,0.45057 0.36354,0.87343 0.50391,1.20508c0.14036,0.33165 0.21642,0.51683 0.30469,0.69336v0.00195l0.00195,0.00195c0.08654,0.17075 0.07889,0.06143 0.04883,0.12109c-0.21103,0.41883 -0.23966,0.52166 -0.45312,0.76758c-0.32502,0.37443 -0.65655,0.792 -0.83203,0.96484c-0.15353,0.15082 -0.43055,0.38578 -0.60352,0.8457c-0.17323,0.46063 -0.09238,1.09262 0.18555,1.56445c0.37003,0.62819 1.58941,2.6129 3.48438,4.28125c1.19338,1.05202 2.30519,1.74828 3.19336,2.2168c0.88817,0.46852 1.61157,0.74215 1.77344,0.82227c0.38438,0.19023 0.80448,0.33795 1.29297,0.2793c0.48849,-0.05865 0.90964,-0.35504 1.17773,-0.6582l0.00195,-0.00195c0.3568,-0.40451 1.41702,-1.61513 1.92578,-2.36133c0.02156,0.0076 0.0145,0.0017 0.18359,0.0625v0.00195h0.00195c0.0772,0.02749 1.04413,0.46028 1.90625,0.87109c0.86212,0.41081 1.73716,0.8378 2.02148,0.97852c0.41033,0.20308 0.60422,0.33529 0.6543,0.33594c0.00338,0.08798 0.0068,0.18333 -0.00586,0.32813c-0.03507,0.40164 -0.14243,0.95757 -0.35742,1.55273c-0.10532,0.29136 -0.65389,0.89227 -1.3457,1.33008c-0.69181,0.43781 -1.53386,0.74705 -1.8457,0.79297c-0.9376,0.13815 -2.05083,0.18859 -3.27344,-0.19531c-0.84773,-0.26609 -1.90476,-0.61053 -3.27344,-1.19336c-2.77581,-1.18381 -5.13503,-3.19825 -6.82031,-4.97266c-0.84264,-0.8872 -1.51775,-1.71309 -1.99805,-2.33789c-0.4794,-0.62364 -0.68874,-0.94816 -0.86328,-1.17773l-0.00195,-0.00195c-0.30983,-0.40973 -2.20703,-3.04868 -2.20703,-5.42578c0,-2.51576 1.1685,-3.50231 1.80078,-4.18359c0.33194,-0.35766 0.69484,-0.41016 0.8418,-0.41016z"></path></g></g></svg>
